assets/pulse/pulse-1.svg

<svg width="262" height="128" viewBox="0 0 262 128" fill="none" xmlns="http://www.w3.org/2000/svg">
<path d="M179.011 19.5V20H174.066V19.5H172.088V20H167.143V19.5H165.165V20H160.22V19.5H158.242V20H153.297V19.5H151.319V20H146.374V19.5H144.396V20H139.451V19.5H137.473V20H132.527V19.5H130.549V20H125.604V19.5H123.626V20H118.681V19.5H116.703V20H111.758V19.5H109.78V20H104.835V19.5H102.857V20H97.9121V19.5H95.9341V20H90.989V19.5H89.011V20H84.0659V19.5H82.0879V20H77.1429V19.5H75.1648V20H70.2198V19.5H68.2418V20H63.2967V19.5H61.3187V20H56.3736V19.5H54.3956V20H49.4506V19.5H47.4725V20H42.5275V19.5H40.5495V20H35.6044V19.5H33.6264V20H28.6813V19.5H26.7033V20H21.7582V19.5H19.7802V20H14.8352V19.5H12.8571V20H7.91209V19.5H5.93407V20H0.989011V19.5H0.5V19.0476H0V14.2857H0.5V12.381H0V7.61905H0.5V5.71429H0V0.952381H0.5V0.5H1V0H6V0.5H8V0H13V0.5H15V0H20V0.5H22V0H27V0.5H29V0H34V0.5H36V0H41V0.5H43V0H48V0.5H50V0H55V0.5H57V0H62V0.5H64V0H69V0.5H71V0H76V0.5H78V0H83V0.5H85V0H90V0.5H92V0H97V0.5H99V0H104V0.5H106V0H111V0.5H113V0H118V0.5H120V0H125V0.5H127V0H132V0.5H134V0H139V0.5H141V0H146V0.5H148V0H153V0.5H155V0H160V0.5H162V0H167V0.5H169V0H174V0.5H176V0H181V0.5H183V0H188V0.5H190V0H195V0.5H196C196.284 0.5 196.565 0.515809 196.841 0.546557L196.896 0.0496349C198.434 0.221043 199.84 0.82831 200.988 1.74507L200.676 2.13579C201.115 2.48628 201.514 2.88501 201.864 3.32394L202.255 3.01195C203.172 4.16004 203.779 5.56612 203.95 7.10382L203.453 7.15921C203.484 7.43506 203.5 7.71559 203.5 8V8.9796H204V13.8776H203.5V15.8367H204V20.7347H203.5V22.6939H204V27.5918H203.5V29.551H204V34.449H203.5V36.4082H204V41.3061H203.5V43.2653H204V48.1633H203.5V50.1224H204V55.0204H203.5V56.9796H204V61.8775H203.5V63.8367H204V68.7347H203.5V70.6939H204V75.5918H203.5V77.551H204V82.449H203.5V84.4082H204V89.3061H203.5V91.2653H204V96.1633H203.5V98.1225H204V103.02H203.5V104C203.5 104.344 203.539 104.679 203.612 105.001L204.099 104.89C204.439 106.385 205.615 107.561 207.11 107.901L206.999 108.388C207.321 108.461 207.656 108.5 208 108.5H208.955V108H213.732V108.5H215.643V108H220.42V108.5H222.33V108H227.107V108.5H229.018V108H233.795V108.5H235.705V108H240.482V108.5H242.393V108H247.17V108.5H249.08V108H253.857V108.5H255.768V108H260.545V108.5H261V108.952H261.5V113.714H261V115.619H261.5V120.381H261V122.286H261.5V127.048H261V127.5H260.507V128H255.543V127.5H253.557V128H248.593V127.5H246.607V128H241.643V127.5H239.657V128H234.693V127.5H232.707V128H227.743V127.5H225.757V128H220.793V127.5H218.807V128H213.843V127.5H211.857V128H206.893V127.5H204.907V128H199.943V127.5H197.957V128H192.993V127.5H192C191.716 127.5 191.435 127.484 191.159 127.453L191.104 127.95C189.566 127.779 188.16 127.172 187.012 126.255L187.324 125.864C186.885 125.514 186.486 125.115 186.136 124.676L185.745 124.988C184.828 123.84 184.221 122.434 184.05 120.896L184.547 120.841C184.516 120.565 184.5 120.284 184.5 120V119.02H184V114.122H184.5V112.163H184V107.265H184.5V105.306H184V100.408H184.5V98.449H184V93.551H184.5V91.5918H184V86.6939H184.5V84.7347H184V79.8367H184.5V77.8776H184V72.9796H184.5V71.0204H184V66.1225H184.5V64.1633H184V59.2653H184.5V57.3061H184V52.4082H184.5V50.449H184V45.551H184.5V43.5918H184V38.6939H184.5V36.7347H184V31.8367H184.5V29.8776H184V24.9796H184.5V24C184.5 23.6564 184.461 23.3212 184.388 22.9987L183.901 23.1095C183.561 21.6154 182.385 20.4392 180.89 20.0995L181.001 19.6119C180.679 19.5386 180.344 19.5 180 19.5H179.011Z" stroke="#53D084" stroke-dasharray="2 5"/>
</svg>

<svg id="Layer_1" data-name="Layer 1" xmlns="http://www.w3.org/2000/svg" viewBox="0 0 262.5 129.02">
<defs>
<style>.cls-1,.cls-2{fill:none;}.cls-1{stroke:#53d084;stroke-dasharray:2 5;}.cls-2{stroke:#63bf81;stroke-miterlimit:10;}
</style>
</defs>
<path class="cls-1" d="M179,19.5V20h-4.94v-.5h-2V20h-5v-.5h-2V20h-4.94v-.5h-2V20H153.3v-.5h-2V20h-4.95v-.5h-2V20h-5v-.5h-2V20h-4.94v-.5h-2V20h-5v-.5h-2V20h-4.95v-.5h-2V20h-4.94v-.5h-2V20h-5v-.5h-2V20h-5v-.5h-2V20H91v-.5H89V20H84.07v-.5h-2V20h-5v-.5h-2V20H70.22v-.5h-2V20H63.3v-.5h-2V20h-5v-.5h-2V20H49.45v-.5h-2V20H42.53v-.5h-2V20H35.6v-.5h-2V20h-5v-.5h-2V20H21.76v-.5h-2V20H14.84v-.5h-2V20H7.91v-.5h-2V20H1v-.5H.5v-.45H0V14.29H.5V12.38H0V7.62H.5V5.71H0V1H.5V.5H1V0H6V.5H8V0h5V.5h2V0h5V.5h2V0h5V.5h2V0h5V.5h2V0h5V.5h2V0h5V.5h2V0h5V.5h2V0h5V.5h2V0h5V.5h2V0h5V.5h2V0h5V.5h2V0h5V.5h2V0h5V.5h2V0h5V.5h2V0h5V.5h2V0h5V.5h2V0h5V.5h2V0h5V.5h2V0h5V.5h2V0h5V.5h2V0h5V.5h2V0h5V.5h2V0h5V.5h2V0h5V.5h2V0h5V.5h2V0h5V.5h2V0h5V.5h1a7.73,7.73,0,0,1,.84.05l.06-.5A8,8,0,0,1,201,1.75l-.31.39a7.74,7.74,0,0,1,1.18,1.18l.4-.31A8,8,0,0,1,204,7.1l-.5.06a7.89,7.89,0,0,1,.05.84V9h.5v4.9h-.5v2h.5v4.89h-.5v2h.5v4.9h-.5v2h.5v4.9h-.5v2h.5v4.9h-.5v2h.5v4.89h-.5v2h.5V55h-.5v2h.5v4.9h-.5v2h.5v4.89h-.5v2h.5v4.9h-.5v2h.5v4.9h-.5v2h.5v4.9h-.5v2h.5v4.89h-.5v2h.5V103h-.5v1a4.71,4.71,0,0,0,.11,1l.49-.11a4,4,0,0,0,3,3l-.11.49a4.71,4.71,0,0,0,1,.11h1V108h4.77v.5h1.91V108h4.78v.5h1.91V108h4.78v.5H229V108h4.77v.5h1.92V108h4.77v.5h1.91V108h4.78v.5h1.91V108h4.78v.5h1.91V108h4.78v.5H261V109h.5v4.76H261v1.91h.5v4.76H261v1.91h.5v4.76H261v.45h-.49v.5h-5v-.5h-2v.5h-5v-.5h-2v.5h-5v-.5h-2v.5h-5v-.5h-2v.5h-5v-.5h-2v.5h-5v-.5h-2v.5h-5v-.5h-2v.5h-5v-.5h-2v.5h-5v-.5h-2v.5h-5v-.5h-1a7.73,7.73,0,0,1-.84,0l-.06.5a8,8,0,0,1-4.09-1.7l.31-.39a7.74,7.74,0,0,1-1.18-1.18l-.4.31a8,8,0,0,1-1.69-4.09l.5-.06a7.73,7.73,0,0,1-.05-.84v-1H184v-4.9h.5v-2H184v-4.9h.5v-2H184v-4.9h.5v-2H184v-4.9h.5v-2H184v-4.9h.5v-2H184V79.84h.5v-2H184V73h.5V71H184v-4.9h.5v-2H184V59.27h.5v-2H184v-4.9h.5v-2H184v-4.9h.5v-2H184v-4.9h.5v-2H184V31.84h.5v-2H184V25h.5V24a4.71,4.71,0,0,0-.11-1l-.49.11a4,4,0,0,0-3-3l.11-.49a4.71,4.71,0,0,0-1-.11Z" transform="translate(0.5 0.51)"/>
<path class="cls-2" d="M.5.5,192.44,0S204-.91,204,12l-.5,91s-.59,5.33,7.13,5L262,108" transform="translate(0.5 0.51)"/>
<path class="cls-2" d="M.5,9.94l188,.94s5.46-.12,5.49,5.47l-.45,94.83s.49,6,7.56,6H262" transform="translate(0.5 0.51)"/>
<path class="cls-2" d="M.5,19.5H179s5.46-.11,5.49,5.48l-.45,95.92s0,6.6,7.95,6.6h70" transform="translate(0.5 0.51)"/>
</svg>
